X:200
T:Rogueland Waltz  (traditional)
C:in Andy De Jarlis old music book
M:3/4
L:1/8
Z:abc by Bruce Osborne - bosborne@kos.net
K:G
Bc|d2 b3 f|a2 g2 e2|d6|B4 d_d|!
c2 d2 f2|a2 b2 c'2|b6 -|b4 Bc|!
d2 b3 f|a2 g2 e2|d6|B4 B2|!
A2 d3 f|a2 e3 f|d6 -|d3 d ^cd|!
e4 ee|f4 ba|g6|d4 e2|!
f3 e fa|g2 f2 e2|a6 -|a4 Bc|!
d2 b3 f|a2 g2 e2|d6|B4 d2|!
e2 a3 g|f2 b3 a|g6 -|g4:|!
|:Bc|d3 e dc|B4 g2|e3 f ed|^c4 a2|!
f3 g fe|d6|de fe dc|B4 Bc|!
d3 e dc|B4 g2|e3 f ed|^c4 a2|!
f3 g fe|d2 e2 f2|g6|g4:|!
